assets/svg/linear_security_shielduser.svg

<svg width="24" height="24" viewBox="0 0 24 24" fill="none" xmlns="http://www.w3.org/2000/svg">
<path d="M4.7998 10.7333C4.7998 8.17526 4.7998 6.89622 5.10182 6.46593C5.40383 6.03563 6.60646 5.62397 9.01173 4.80063L9.46998 4.64377C10.7238 4.21459 11.3507 4 11.9998 4C12.6489 4 13.2758 4.21459 14.5296 4.64377L14.9879 4.80063C17.3931 5.62397 18.5958 6.03563 18.8978 6.46593C19.1998 6.89622 19.1998 8.17526 19.1998 10.7333C19.1998 11.1197 19.1998 11.5387 19.1998 11.9931C19.1998 16.5035 15.8086 18.6924 13.681 19.6218C13.1038 19.8739 12.8152 20 11.9998 20C11.1844 20 10.8958 19.8739 10.3187 19.6218C8.19097 18.6924 4.7998 16.5035 4.7998 11.9931C4.7998 11.5387 4.7998 11.1197 4.7998 10.7333Z" stroke="#494949" stroke-width="1.5"/>
<circle cx="12.0004" cy="9.6" r="1.6" stroke="#494949" stroke-width="1.5"/>
<path d="M15.1998 14.4008C15.1998 15.2844 15.1998 16.0008 11.9998 16.0008C8.7998 16.0008 8.7998 15.2844 8.7998 14.4008C8.7998 13.5171 10.2325 12.8008 11.9998 12.8008C13.7671 12.8008 15.1998 13.5171 15.1998 14.4008Z" stroke="#494949" stroke-width="1.5"/>
</svg>

<svg xmlns="http://www.w3.org/2000/svg" width="24" height="24" fill="none"><path stroke="#494949" stroke-width="1.5" d="M4.8 10.733c0-2.558 0-3.837.302-4.267s1.504-.842 3.91-1.665l.458-.157C10.724 4.214 11.35 4 12 4s1.276.215 2.53.644l.458.157c2.405.823 3.608 1.235 3.91 1.665s.302 1.71.302 4.267v1.26c0 4.51-3.391 6.7-5.519 7.629-.577.252-.866.378-1.681.378s-1.104-.126-1.681-.378c-2.128-.93-5.52-3.119-5.52-7.629z"/><circle cx="12" cy="9.6" r="1.6" stroke="#494949" stroke-width="1.5"/><path stroke="#494949" stroke-width="1.5" d="M15.2 14.4c0 .884 0 1.6-3.2 1.6s-3.2-.716-3.2-1.6c0-.883 1.432-1.6 3.2-1.6 1.767 0 3.2.717 3.2 1.6Z"/></svg>
